X: 102
T:Mucking O' Geordie's Byre
R:Jig
C:Trad
S:Ne
M:6/8
L:1/8
Q:3/8=120
K:D
|:ABA AFA|d2e f2a|g2e f2d|e2d Bcd|
ABA AFA|d2e f2g|afd efe|[1 d3 dcB:|[2 d3 def
|:g2g gab|f2f fga|efe ede|fed Bcd|
ABA AFA|d2e f2g|afd efe|[1 d3 def:|[2 d3 z3|]
